dist/icons/svgs/house-group-solid.svg

<svg xmlns="http://www.w3.org/2000/svg" width="24" height="24" fill="currentcolor" class="icon-house-group-solid" viewBox="0 0 24 24">
  <path d="M23.9962 9.88235C23.9962 10.3663 23.6152 10.7426 23.1834 10.7426H22.3706L22.396 15.0441C22.396 15.1248 22.396 15.2054 22.396 15.2592V15.6893C22.396 16.3077 21.9388 16.7647 21.38 16.7647H20.9736C20.9228 16.7647 20.8974 16.7647 20.872 16.7647C20.8466 16.7647 20.7958 16.7647 20.7704 16.7647H19.348C18.7638 16.7647 18.332 16.3077 18.332 15.6893V13.3235C18.332 12.8665 17.951 12.4632 17.5192 12.4632H15.8936C15.4364 12.4632 15.0808 12.8665 15.0808 13.3235V15.6893C15.0808 16.3077 14.6237 16.7647 14.0649 16.7647H12.6425C12.5917 16.7647 12.5663 16.7647 12.5155 16.7647C12.4901 16.7647 12.4647 16.7647 12.4393 16.7647H12.0329C11.4487 16.7647 11.0169 16.3077 11.0169 15.6893V12.6783C11.0169 12.6783 11.0169 12.6514 11.0169 12.6245V10.7426H10.2041C9.7469 10.7426 9.3913 10.3663 9.3913 9.88235C9.3913 9.6404 9.4675 9.42532 9.6453 9.23713L16.1476 3.21507C16.3254 3.02688 16.5286 3 16.7064 3C16.8842 3 17.0874 3.05377 17.2398 3.18819L23.7168 9.23713C23.92 9.42532 24.0216 9.6404 23.9962 9.88235Z"/>
  <path d="M14.6049 14.1176C14.6049 14.6016 14.2239 14.9779 13.7921 14.9779H12.9793L13.0047 19.2794C13.0047 19.3601 13.0047 19.4407 13.0047 19.4945V19.9246C13.0047 20.543 12.5475 21 11.9887 21H11.5823C11.5315 21 11.5061 21 11.4807 21C11.4553 21 11.4045 21 11.3791 21H9.9567C9.37251 21 8.94071 20.543 8.94071 19.9246V17.5588C8.94071 17.1018 8.55972 16.6985 8.12792 16.6985H6.50234C6.04514 16.6985 5.68955 17.1018 5.68955 17.5588V19.9246C5.68955 20.543 5.23235 21 4.67355 21H3.25117C3.20037 21 3.17497 21 3.12417 21C3.09877 21 3.07337 21 3.04797 21H2.64157C2.05738 21 1.62558 20.543 1.62558 19.9246V16.9136C1.62558 16.9136 1.62558 16.8867 1.62558 16.8598V14.9779H0.812792C0.355597 14.9779 0 14.6016 0 14.1176C0 13.8757 0.0761993 13.6606 0.253998 13.4724L6.75633 7.45037C6.93413 7.26218 7.13733 7.23529 7.31513 7.23529C7.49293 7.23529 7.69613 7.28906 7.84852 7.42348L14.3255 13.4724C14.5287 13.6606 14.6303 13.8757 14.6049 14.1176Z"/>
</svg>

<svg xmlns="http://www.w3.org/2000/svg" width="24" height="24" fill="currentColor" class="icon-house-group-solid" viewBox="0 0 24 24">
  <path d="M23.996 9.882c0 .484-.38.86-.813.86h-.812l.025 4.302v.645c0 .619-.457 1.076-1.016 1.076h-2.032c-.584 0-1.016-.457-1.016-1.076v-2.366c0-.457-.381-.86-.813-.86h-1.625c-.458 0-.813.404-.813.86v2.366c0 .619-.457 1.076-1.016 1.076h-2.032c-.584 0-1.016-.457-1.016-1.076v-4.946h-.813c-.457 0-.813-.377-.813-.86a.9.9 0 0 1 .254-.646l6.503-6.022c.177-.188.38-.215.558-.215s.381.054.534.188l6.477 6.05c.203.187.305.402.28.644"/>
  <path d="M14.605 14.118c0 .484-.381.86-.813.86h-.813l.026 4.301v.645c0 .619-.458 1.076-1.016 1.076H9.957c-.584 0-1.016-.457-1.016-1.075v-2.366c0-.457-.381-.86-.813-.86H6.502c-.457 0-.812.403-.812.86v2.366c0 .618-.458 1.075-1.016 1.075H2.642c-.585 0-1.016-.457-1.016-1.075v-4.947H.813c-.457 0-.813-.376-.813-.86a.9.9 0 0 1 .254-.646L6.756 7.45c.178-.188.381-.215.56-.215.177 0 .38.054.533.188l6.477 6.05c.203.188.304.403.279.645"/>
</svg>
